icons/lines/wallet-add.svg

<svg xmlns="http://www.w3.org/2000/svg" width="24" height="24" viewBox="0 0 24 24" fill="none" stroke="currentColor" stroke-width="2" stroke-linecap="round" stroke-linejoin="round" >
  <path d="M7.00148 7H17.0015L18.0001 7.00002L14.4785 3.48002C13.1085 2.12002 11.37 2.14 10 3.5L6.77148 6.28003L6 7.00002H7"/>
  <path d="M9 19C9 19.75 8.79 20.46 8.42 21.06C7.73 22.22 6.46 23 5 23C3.54 23 2.27 22.22 1.58 21.06C1.21 20.46 1 19.75 1 19C1 16.79 2.79 15 5 15C7.21 15 9 16.79 9 19Z" stroke-miterlimit="10"/>
  <path d="M6 19.2253H3.51172" stroke-miterlimit="10"/>
  <path d="M4.75439 18V20.5095" stroke-miterlimit="10"/>
  <path d="M22 12V17C22 20 20 22 17 22H7.63C7.94 21.74 8.21 21.42 8.42 21.06C8.79 20.46 9 19.75 9 19C9 16.79 7.21 15 5 15C3.8 15 2.73 15.53 2 16.36V12C2 9.28 3.64 7.38 6.19 7.06C6.45 7.02 6.72 7 7 7H17C17.26 7 17.51 7.00999 17.75 7.04999C20.33 7.34999 22 9.26 22 12Z"/>
  <path d="M22 12.5H19C17.9 12.5 17 13.4 17 14.5C17 15.6 17.9 16.5 19 16.5H22"/>
  </svg>

<svg xmlns="http://www.w3.org/2000/svg" width="24" height="24" viewBox="0 0 24 24" fill="none" stroke="currentColor" stroke-width="2" stroke-linecap="round" stroke-linejoin="round">
  <path d="M17.002 7H18l-3.52-3.52c-1.371-1.36-3.11-1.34-4.48.02L6.771 6.28 6 7za4.6 4.6 0 0 1 .748.05C20.33 7.35 22 9.26 22 12v5c0 3-2 5-5 5H7.63a3.6 3.6 0 0 0 .79-.94A4 4 0 0 0 5 15a4 4 0 0 0-3 1.36V12c0-2.72 1.64-4.62 4.19-4.94A5 5 0 0 1 7 7" />
  <path d="M22 12.5h-3a2 2 0 0 0 0 4h3" />
  <path d="M4.754 18v2.51" />
  <path d="M6 19.225H3.512" />
  <circle cx="5" cy="18.995" r="4" />
</svg>
